src/assets/icons/twitch-color.svg

<svg fill="none" height="39" viewBox="0 0 39 39" width="39" xmlns="http://www.w3.org/2000/svg" xmlns:xlink="http://www.w3.org/1999/xlink"><clipPath id="a"><path d="m0 0h39v39h-39z"/></clipPath><mask id="b" height="39" maskUnits="userSpaceOnUse" width="39" x="0" y="0"><path d="m39 0h-39v39h39z" fill="#fff"/></mask><g clip-path="url(#a)"><g mask="url(#b)"><path d="m26.9883 39h-14.9766c-6.63655 0-12.0117-5.3752-12.0117-12.0117v-14.9766c0-6.63655 5.37515-12.0117 12.0117-12.0117h14.9766c6.6365 0 12.0117 5.37515 12.0117 12.0117v14.9766c0 6.6365-5.3752 12.0117-12.0117 12.0117z" fill="#864ff6"/><path d="m13.016 25.0278h3.4951v3.3986l6.5883-3.0852 3.0853-1.0285 3.6076-4.5235v-11.32072l-16.2621.10445-2.78 4.94127.924 11.7305 1.3418-.2008z" fill="#fefefe"/><g fill="#303030"><path d="m12.9197 7.80964-4.53152 4.53156v16.8084h5.54392v4.5717l4.6038-4.6039h3.7843l8.2998-8.2997v-13.00806zm15.7719 12.09206-3.6396 3.6397h-3.7201l-3.2379 3.238v-3.2621h-4.1539v-13.81953h14.7515z"/><path d="m20.8015 12.8313h-1.7917v5.6563h1.7917z"/><path d="m25.9277 12.8313h-1.7917v5.6563h1.7917z"/></g></g></g></svg>

<svg width="39" height="39" viewBox="0 0 39 39" fill="none" xmlns="http://www.w3.org/2000/svg">
<g clip-path="url(#clip0_34_7234)">
<mask id="mask0_34_7234" style="mask-type:luminance" maskUnits="userSpaceOnUse" x="0" y="0" width="39" height="39">
<path d="M39 0H0V39H39V0Z" fill="white"/>
</mask>
<g mask="url(#mask0_34_7234)">
<path d="M26.9883 39H12.0117C5.37515 39 0 33.6248 0 26.9883V12.0117C0 5.37515 5.37515 0 12.0117 0H26.9883C33.6248 0 39 5.37515 39 12.0117V26.9883C39 33.6248 33.6248 39 26.9883 39Z" fill="#864FF6"/>
<path d="M13.016 25.0278H16.5111V28.4264L23.0994 25.3412L26.1847 24.3127L29.7923 19.7892V8.46848L13.5302 8.57293L10.7502 13.5142L11.6742 25.2447L13.016 25.0439V25.0278Z" fill="#FEFEFE"/>
<path d="M12.9197 7.80964L8.38818 12.3412V29.1496H13.9321V33.7213L18.5359 29.1174H22.3202L30.62 20.8177V7.80964H12.9197ZM28.6916 19.9017L25.052 23.5414H21.3319L18.094 26.7794V23.5173H13.9401V9.69777H28.6916V19.9017Z" fill="#303030"/>
<path d="M20.8015 12.8313H19.0098V18.4876H20.8015V12.8313Z" fill="#303030"/>
<path d="M25.9277 12.8313H24.136V18.4876H25.9277V12.8313Z" fill="#303030"/>
</g>
</g>
<defs>
<clipPath id="clip0_34_7234">
<rect width="39" height="39" fill="white"/>
</clipPath>
</defs>
</svg>
